X:7780
T:Untitled hornpipe
O:england
M:4/4
L:1/8
Q:170
S:"Teddy Boy" Houle
R:hornpipe
K:A
cd | e2 (3efg a2 a2 | cecB A2 cd | efed cBAc | B2 e2 E2 cd |
e2 (3efg a2 a2 | cecB A2 Bc | dcBA GEFG | A2 c2 A2 :||
F=G | A2 GA B2 A=G | F2 f2 f2 zF | A2 =g2 e2 zc/2B/2 | A2 f2 d2 zF |
A2 GA B2 A=G | F2 f2 d2 ef | =gfed cABc | d2 f2 d4 ||


